X: 14504
T: Gan Ainm
R: hornpipe
M: 4/4
K: Fmajor
C/D>E|F>GF>D C>DF>A|G>FG>A G>FD>E|F>GF>D C>DF>A|cc2c2c/ A/G>A|
F>GF>D C>DF>A|G>FG>A G>FD>E|F>GF>D C2A,2|DD2D2D/:|
|:C/D>E|F>GA>B c2A>c|d>cB>d c>AG>A|F>GF>D C>DF>A|G>FG>A G2F>G|
A>cc>A c2 A>c|d>e f/e/d c>AG>A|F>GF>D C2E2|FF2F2F/:|

